icons/Heroku.svg

<svg width="256" height="256" viewBox="0 0 256 256" fill="none" xmlns="http://www.w3.org/2000/svg">
<rect width="256" height="256" rx="60" fill="#430098"/>
<path d="M70 218V166.571L98.9286 192.286L70 218ZM160 218V141.211C159.875 135.21 156.985 128 143.929 128C117.784 128 88.4564 141.15 88.1639 141.281L70 149.51V38H95.7143V111C108.552 106.821 126.497 102.286 143.929 102.286C159.823 102.286 169.337 108.534 174.519 113.777C185.579 124.962 185.73 139.211 185.715 140.857V218H160ZM166.429 79.7857H140.714C150.82 66.5268 157.165 52.5736 160 38H185.714C183.979 52.6057 178.058 66.6071 166.429 79.7857Z" fill="white"/>
</svg>

<svg xmlns="http://www.w3.org/2000/svg" width="256" height="256" fill="none" viewBox="0 0 256 256"><rect width="256" height="256" fill="#430098" rx="60"/><path fill="#fff" d="M70 218v-51.43l28.93 25.72zm90 0v-76.79c-.12-6-3.01-13.21-16.07-13.21-26.15 0-55.47 13.15-55.77 13.28L70 149.51V38h25.71v73c12.84-4.18 30.79-8.71 48.22-8.71 15.9 0 25.4 6.24 30.59 11.49 11.06 11.18 11.21 25.43 11.2 27.08V218zm6.43-138.21H140.7C150.82 66.53 157.16 52.57 160 38h25.71c-1.73 14.6-7.65 28.6-19.28 41.79"/></svg>
